X:512
T:Sean Ryan's
R:Hornpipe
O:Ireland
S:Music from Ireland Vol. 3
B:Music from Ireland Vol. 3
Z:Transcription, chords:Mike Long
M:4/4
L:1/8
K:D
"D"DFAF "G"DGBG|"D"DFAF "G"GFGB|"D"ADFA dfaf|"G"gfed "A"cA (3(GFE)|\
"D"DFAF "G"DGBG|
"D"DFAF "G"GFGB|"A"Acef (3(gfe) ce|"D"df"A"ec "D"d4:|\
|:"D"defd "A"cde=c|"G"(3(B=cB) GB "D"A2FA|
"G"(3(GAG) EG "D"(3(FGF) DF|"A"EA,CE "G"DFED|\
"D"defd "A"cde=c|"G"(3(B=cB) GB "D"A2 FA|\
"G"~G2 EG "D"~F2 DF|"A"EA,CE "D"D4:|
